X: 21082
T: The Wind That Shakes the Barley
O: Trad
R: reel
B: RSCDS 21-8(II) (in A)
Z: John Chambers <jc@trillian.mit.edu>
M: C|
L: 1/8
K: D
[| "D"A2AB AFED | "G"B2BA B2d2 | "D"A2AB AFED | "Em"gfed "A7"B2d2 |
|  "D"A2AB AFED | "G"B2BA BcdB | "D"A2AB AFED | "Em"gfed "A7"Bcde |]
[| "D"f2fd "Em"g2ge | "D"f2fd "A7"ecBA | "D"f2fd "Em"g2ge | "D"afed "A7"Bcde |
|  "D"f2fd "Em"g2ge | "D"f2fd "A7"ecBA | "D"defg "Bm"afba | "Em"gfed "A7"BcdB |]
%%center Book21/21082-Wind_That_Shakes_the_Barley-1.abc

%%sep 1 1 500
%%sep 1 1 500

